!!!COM: Claude Goudimel
!!!OMD: Psalm 123: A toy, ô Dieu, qui est là-haut
**kern	**kern	**kern	**kern
*part4	*part3	*part2	*part1
*staff4	*staff3	*staff2	*staff1
*clefF4	*clefGv2	*clefG2	*clefG2
*k[b-]	*k[b-]	*k[b-]	*k[b-]
!!LO:TX:omd:t=
*M4/4	*M4/4	*M4/4	*M4/4
=1	=1	=1	=1
2FF	2c	2f	2a
2BB-	2B-	2d	2f
=2	=2	=2	=2
2GG	2B-	2d	2g
4FF	4c	4f	4a
4FF	4c	4f	4a
=3	=3	=3	=3
4C	4c	4e	4g
4D	4A	4d	4f
2D	2d	2f	2a
=4	=4	=4	=4
2G	2d	2g	2b-
4F	4f	4a	4cc
4F	4c	4f	4a
=5	=5	=5	=5
4F	4c	4f	4a
4C	4c	4e	2g
2D	2F	2A	.
.	.	.	[4f
=6	=6	=6	=6
2C	2G	2c	4f]
.	.	.	4e
2FF	2A	2c	2f
=7	=7	=7	=7
2r	2r	2r	2r
2F	2A	2c	2f
=8	=8	=8	=8
4D	4A	4d	4f
4C	4c	4e	4g
4F	4c	4f	4a
4F	4c	4f	4a
=9	=9	=9	=9
4F	4A	4f	4cc
4BB-	4d	4f	4b-
2F	2c	2f	2a
=10	=10	=10	=10
2C	2c	2e	2g
2D	2A	2d	2f
=11	=11	=11	=11
4AA	4A	4c	4e
4D	4A	4d	4f
4C	4c	4e	4g
4F	4c	[4f	4a
=12	=12	=12	=12
2BB-	2d	4f]	2b-
.	.	2g	.
2C	2c	.	2a
.	.	[4f	.
=13	=13	=13	=13
2C	2c	4f]	2g
.	.	4e	.
2FF	2c	2f	2f
=14	=14	=14	=14
2r	2r	2r	2r
2F	2c	2f	2a
=15	=15	=15	=15
4D	4d	4f	4a
4G	4d	4g	4b-
2F	2f	2a	2cc
=16	=16	=16	=16
2BB-	2d	2f	2b-
4F	4c	4f	4a
4C	4c	4e	4g
=17	=17	=17	=17
4D	4A	4d	4f
4E-X	4c	2g	4g
2D	2d	.	2a
.	.	4f#X	.
=18	=18	=18	=18
4GG	4Bn	4g	4g
4GG	4d	4g	4b-
4D	4d	4fn	4a
4GG	4B-X	4e	4g
=19	=19	=19	=19
4BB-	4B-	4d	4f
4C	4G	2c	4e
2GG	2G	.	2d
.	.	4Bn	.
=20	=20	=20	=20
2C	2G	2c	2c
2r	2r	2r	2r
=21	=21	=21	=21
2D	2d	2A	2f
4D	4d	4f	4a
4G	4d	4g	4b-
=22	=22	=22	=22
2F	2f	2a	2cc
2C	2e	2g	2cc
=23	=23	=23	=23
4D	4d	4f	4a
4D	4d	4f	4a
2D	2A	2d	2f
=24	=24	=24	=24
2C	2c	2e	2g
4F	4c	4f	4a
4FF	4c	4f	4a
=25	=25	=25	=25
4C	4c	4e	4g
4GG	4d	2g	4b-
2AA	2c	.	2a
.	.	[4f	.
=26	=26	=26	=26
2C	2c	4f]	2g
.	.	4e	.
[2FF	[2c	[2f	[2f
=27	=27	=27	=27
2FF]	2c]	2f]	2f]
2ryy	2ryy	2ryy	2ryy
==	==	==	==
*-	*-	*-	*-
!!!software: music21 v.9.7.1
!!!software: music21 v.8.3.0
!!!RDF**kern: > = above
!!!RDF**kern: < = below
